!!!!SEGMENT: pl-sa--250-a-vii-10--003_kobierkowicz-jozef-ego-mater-pulchrae-dilectionis-surge-propera.krn
!!!id: 17xx:323
!!!COM: Kobierkowicz, Józef
!!!OTL: Ego Mater pulchrae dilectionis – Surge propera
!!!PDT: 1740
!!!SMS-siglum: PL-SA
!!!SMS-shelfmark: 250/A VII 10
!!!NIFC-rismID: 1001035444
!!!URL-scan: http://bc.bdsandomierz.pl/dlibra/publication/1602/edition/1570/content
!!!ONB-nifc: UWAGA: części Motetu: Ego Mater, In me gratia, Surge Propera
**kern	**kern	**kern	**kern	**kern	**text	**kern	**text	**kern	**text	**kern	**text
*part8	*part7	*part6	*part5	*part4	*part4	*part3	*part3	*part2	*part2	*part1	*part1
*staff8	*staff7	*staff6	*staff5	*staff4	*staff4	*staff3	*staff3	*staff2	*staff2	*staff1	*staff1
*I"Basso	*I"Viola	*I"Violino Secondo	*I"Violino 1mo	*I"Baſso	*	*I"Tenore	*	*I"Alto	*	*I"Canto	*
*I'bc	*I'vla basso	*I'vl 2	*I'vl 1	*I'B	*	*I'T	*	*I'A	*	*I'S	*
*group3	*group2	*group2	*group2	*group1	*	*group1	*	*group1	*	*group1	*
*clefF4	*clefF4	*clefG2	*clefG2	*clefF4	*	*clefC4	*	*clefC3	*	*clefC1	*
*k[b-]	*k[b-]	*k[b-]	*k[b-]	*k[b-]	*	*k[b-]	*	*k[b-]	*	*k[b-]	*
*M4/4	*M4/4	*M4/4	*M4/4	*M4/4	*	*M4/4	*	*M4/4	*	*M4/4	*
*met(c)	*met(c|)	*met(c)	*met(c)	*met(c)	*	*met(c)	*	*met(c)	*	*met(c)	*
=1	=1	=1	=1	=1	=1	=1	=1	=1	=1	=1	=1
!LO:TX:b:t=Surge vv.	!LO:TX:a:t=Tutti	!	!	!	!	!	!	!	!	!	!
!	!LO:TX:b:t=Surge	!	!LO:TX:a:t=P:problem: jeden bemol przy kluczu	!LO:TX:a:t=P:problem: brak znaków przykluczowych	!	!LO:TX:a:t=P:problem: brak znaków przykluczowych	!	!LO:TX:a:t=P:problem: brak znaków przykluczowych	!	!LO:TX:a:t=P:problem: brak znaków przykluczowych	!
8GG/L	8GG/L	4r	16g/LL	00r	.	00r	.	00r	.	00r	.
.	.	.	16f#X/	.	.	.	.	.	.	.	.
8AA/	8AA/	.	16g/	.	.	.	.	.	.	.	.
.	.	.	16a/JJ	.	.	.	.	.	.	.	.
!LO:TX:a:t=6	!	!	!	!	!	!	!	!	!	!	!
8BB-/	8BB-/	16g/LL	16b-\LL	.	.	.	.	.	.	.	.
.	.	16f#X/	16a\	.	.	.	.	.	.	.	.
8GG/J	8GG/J	16g/	16b-\	.	.	.	.	.	.	.	.
.	.	16a/JJ	16cc\JJ	.	.	.	.	.	.	.	.
4GG/	4GG/	8b-\L	8dd\L	.	.	.	.	.	.	.	.
.	.	8b-\J	8gg\J	.	.	.	.	.	.	.	.
4r	4r	8b-\L	8gg\L	.	.	.	.	.	.	.	.
.	.	16cc\L	16aa\L	.	.	.	.	.	.	.	.
.	.	16b-\JJ	16gg\JJ	.	.	.	.	.	.	.	.
=2	=2	=2	=2	=2	=2	=2	=2	=2	=2	=2	=2
!LO:TX:a:t=♯	!	!LO:TX:a:t=P:problem: mixed beam	!	!	!	!	!	!	!	!	!
!LO:TX:a:t=P:problem: 4\ right	!	!	!	!	!	!	!	!	!	!	!
4D\	4D\	8a/L	8ff#X\L	.	.	.	.	.	.	.	.
.	.	8ff#X\J	8aa\J	.	.	.	.	.	.	.	.
4r	4r	8gg\L	8bb-\L	.	.	.	.	.	.	.	.
.	.	16aa\L	16ccc\L	.	.	.	.	.	.	.	.
.	.	16gg\JJ	16bb-\JJ	.	.	.	.	.	.	.	.
4C/	4C/	8cc\L	8aa\L	.	.	.	.	.	.	.	.
.	.	16dd\L	16bb-\L	.	.	.	.	.	.	.	.
.	.	16cc\JJ	16aa\JJ	.	.	.	.	.	.	.	.
8D/L	8D/L	8.b-\L	8.gg\L	.	.	.	.	.	.	.	.
!LO:TX:a:t=#	!	!	!	!	!	!	!	!	!	!	!
8DD/J	8DD/J	.	.	.	.	.	.	.	.	.	.
.	.	16a\Jk	16ff#X\Jk	.	.	.	.	.	.	.	.
=3	=3	=3	=3	=3	=3	=3	=3	=3	=3	=3	=3
8GG/L	8GG/L	16dd\LL	16gg\LL	.	.	.	.	.	.	.	.
.	.	16dd\	16gg\	.	.	.	.	.	.	.	.
8AA/	8AA/	16dd\	16gg\	.	.	.	.	.	.	.	.
.	.	16dd\JJ	16gg\JJ	.	.	.	.	.	.	.	.
!LO:TX:a:t=6	!	!	!	!	!	!	!	!	!	!	!
8BB-/	8BB-/	16dd\LL	16gg\LL	.	.	.	.	.	.	.	.
.	.	16dd\	16gg\	.	.	.	.	.	.	.	.
8GG/J	8GG/J	16dd\	16aa\	.	.	.	.	.	.	.	.
.	.	16dd\JJ	16bb-\JJ	.	.	.	.	.	.	.	.
!LO:TX:a:t=98	!	!LO:TX:a:t=P:problem: mixed beam	!	!	!	!	!	!	!	!	!
8FF/L	8FF/L	16ff/LL	16aa\LL	.	.	.	.	.	.	.	.
.	.	16a\	16cc\	.	.	.	.	.	.	.	.
8GG/	8GG/	16a\	16cc\	.	.	.	.	.	.	.	.
.	.	16a\JJ	16cc\JJ	.	.	.	.	.	.	.	.
!LO:TX:a:t=6	!	!	!	!	!	!	!	!	!	!	!
8AA/	8AA/	16a/LL	16cc\LL	.	.	.	.	.	.	.	.
.	.	16a/	16cc\	.	.	.	.	.	.	.	.
!LO:TX:a:t=7\n5	!	!	!	!	!	!	!	!	!	!	!
8FF/J	8FF/J	16a/	16dd\	.	.	.	.	.	.	.	.
.	.	16cc/JJ	16ee-X\JJ	.	.	.	.	.	.	.	.
!	!LO:LB:g=original	!	!	!	!	!	!	!	!	!	!
=4	=4	=4	=4	=4	=4	=4	=4	=4	=4	=4	=4
!	!	!LO:TX:a:t=P:problem: mixed beam	!	!	!	!	!	!	!	!	!
8BB-/L	8BB-/L	16dd/LL	16ff\LL	.	.	.	.	.	.	.	.
.	.	16f\	16b-\	.	.	.	.	.	.	.	.
8C/	8C/	16f\	16b-\	.	.	.	.	.	.	.	.
.	.	16f\JJ	16b-\JJ	.	.	.	.	.	.	.	.
!	!	!	!LO:LB:g=original	!	!	!	!	!	!	!	!
8D/	8D/	16f/LL	16b-\LL	.	.	.	.	.	.	.	.
.	.	16f/	16b-\	.	.	.	.	.	.	.	.
8BB-/J	8BB-/J	16a/	16cc\	.	.	.	.	.	.	.	.
.	.	16b-/JJ	16dd\JJ	.	.	.	.	.	.	.	.
!LO:TX:a:t=P:problem: 8\ right	!	!	!	!	!	!	!	!	!	!	!
!LO:TX:a:t=6\n5	!	!LO:LB:g=original	!	!	!	!	!	!	!	!	!
8E-X\L	8E-X\L	16g/LL	16ee-X\LL	.	.	.	.	.	.	.	.
.	.	16g/	16cc\	.	.	.	.	.	.	.	.
8C\J	8C\J	16b-/	16dd\	.	.	.	.	.	.	.	.
.	.	16d/JJ	16g\JJ	.	.	.	.	.	.	.	.
!LO:TX:a:t=P:problem: mixed beam	!LO:TX:a:t=P:problem: mixed beam	!	!	!	!	!	!	!	!	!	!
8D\L	8D\L	8.f#X/L	8.a/L	.	.	.	.	.	.	.	.
!LO:TX:a:t=43\n♯	!	!	!	!	!	!	!	!	!	!	!
8DD/J	8DD/J	.	.	.	.	.	.	.	.	.	.
.	.	16g/Jk	16g/Jk	.	.	.	.	.	.	.	.
=5	=5	=5	=5	=5	=5	=5	=5	=5	=5	=5	=5
!	!	!	!	!	!	!LO:TX:a:t=Tutti	!	!LO:TX:a:t=tutti	!	!LO:TX:a:t=P:problem:8\ right	!
!LO:TX:b:t=Jus	!	!	!	!LO:TX:a:t=P:problem:8\ right	!	!LO:TX:a:t=P:problem:8\ right	!	!LO:TX:a:t=P:problem:8\ right	!	!	!
4GG/	4GG/	4g/	4g/	8G\	Sur-	8d\	Sur-	8d\	Sur-	8b-X\	Sur-
.	.	.	.	8GG/	-ge	8B-X\	-ge	8d\	-ge	8b-\	-ge
4r	4r	16gg\LL	4r	4r	.	4r	.	4r	.	4r	.
.	.	16bb-\	.	.	.	.	.	.	.	.	.
.	.	16ddd\	.	.	.	.	.	.	.	.	.
.	.	16bb-\JJ	.	.	.	.	.	.	.	.	.
4G\	4G\	8gg\	16ddd\LL	2r	.	2r	.	2r	.	2r	.
.	.	.	16bb-\	.	.	.	.	.	.	.	.
.	.	8r	16ddd\	.	.	.	.	.	.	.	.
.	.	.	16gg\JJ	.	.	.	.	.	.	.	.
!LO:TX:a:t=6	!	!	!	!	!	!	!	!	!	!	!
!LO:TX:b:t=Solo	!	!	!	!	!	!	!	!	!	!	!
4F#X\	4F#X\	4r	16ddd\LL	.	.	.	.	.	.	.	.
.	.	.	16ccc\	.	.	.	.	.	.	.	.
.	.	.	16ddd\	.	.	.	.	.	.	.	.
.	.	.	16aa\JJ	.	.	.	.	.	.	.	.
=6	=6	=6	=6	=6	=6	=6	=6	=6	=6	=6	=6
!LO:TX:a:t=6	!	!	!	!	!	!	!	!	!	!	!
4Fn\	4Fn\	0r	16ddd\LL	0r	.	0r	.	0r	.	0r	.
.	.	.	16aa\	.	.	.	.	.	.	.	.
.	.	.	16ddd\	.	.	.	.	.	.	.	.
.	.	.	16ccc\JJ	.	.	.	.	.	.	.	.
!LO:TX:a:t=2	!	!	!	!	!	!	!	!	!	!	!
4E-X\	4E-X\	.	16ddd\LL	.	.	.	.	.	.	.	.
.	.	.	16gg\	.	.	.	.	.	.	.	.
.	.	.	16aa\	.	.	.	.	.	.	.	.
.	.	.	16bb-\JJ	.	.	.	.	.	.	.	.
!LO:TX:a:t=6	!	!	!	!	!	!	!	!	!	!	!
4En\	4En\	.	16ccc\LL	.	.	.	.	.	.	.	.
.	.	.	16gg\	.	.	.	.	.	.	.	.
.	.	.	16ccc\	.	.	.	.	.	.	.	.
.	.	.	16bb-\JJ	.	.	.	.	.	.	.	.
!LO:TX:a:t=2	!	!	!	!	!	!	!	!	!	!	!
4D\	4D\	.	16ccc\LL	.	.	.	.	.	.	.	.
.	.	.	16ff#X\	.	.	.	.	.	.	.	.
.	.	.	16ccc\	.	.	.	.	.	.	.	.
.	.	.	16ff#X\JJ	.	.	.	.	.	.	.	.
!LO:LB:g=original	!	!	!	!	!	!	!	!	!	!	!
=7	=7	=7	=7	=7	=7	=7	=7	=7	=7	=7	=7
8GG/L	8GG/L	.	16bb-\LL	.	.	.	.	.	.	.	.
.	.	.	16dd\	.	.	.	.	.	.	.	.
8AA/	8AA/	.	16bb-\	.	.	.	.	.	.	.	.
.	.	.	16dd\JJ	.	.	.	.	.	.	.	.
!LO:TX:a:t=6	!	!	!	!	!	!	!	!	!	!	!
8BB-/	8BB-/	.	16bb-\LL	.	.	.	.	.	.	.	.
.	.	.	16dd\	.	.	.	.	.	.	.	.
8GG/J	8GG/J	.	16bb-\	.	.	.	.	.	.	.	.
.	.	.	16dd\JJ	.	.	.	.	.	.	.	.
!	!	!	!LO:LB:g=original	!	!	!	!	!	!	!	!
8FF/L	8FF/L	.	16aa\LL	.	.	.	.	.	.	.	.
.	.	.	16cc\	.	.	.	.	.	.	.	.
8GG/	8GG/	.	16aa\	.	.	.	.	.	.	.	.
.	.	.	16cc\JJ	.	.	.	.	.	.	.	.
!LO:TX:a:t=6	!	!	!	!	!	!	!	!	!	!	!
8AA/	8AA/	.	16aa\LL	.	.	.	.	.	.	.	.
.	.	.	16cc\	.	.	.	.	.	.	.	.
8FF/J	8FF/J	.	16aa\	.	.	.	.	.	.	.	.
.	.	.	16cc\JJ	.	.	.	.	.	.	.	.
!	!	!	!	!	!	!LO:TX:a:t=P:problem: brak kreski taktowej	!	!LO:LB:g=original	!	!LO:TX:a:t=P:problem: brak kreski taktowej	!
=8	=8	=8	=8	=8	=8	=8	=8	=8	=8	=8	=8
!LO:TX:a:t=6	!	!	!	!	!	!	!	!	!	!	!
8BB-/L	8BB-/L	1r	16gg\LL	2r	.	2r	.	2r	.	2r	.
.	.	.	16dd\	.	.	.	.	.	.	.	.
!LO:TX:a:t=6\n5	!	!	!	!	!	!	!	!	!	!	!
8C/J	8C/J	.	16ff#X\	.	.	.	.	.	.	.	.
.	.	.	16gg\JJ	.	.	.	.	.	.	.	.
!LO:TX:a:t=♯	!LO:TX:a:t=P:problem: mixed beam	!	!	!	!	!	!	!	!	!	!
!LO:TX:a:t=P:problem: mixed beam	!	!	!	!	!	!	!	!	!	!	!
8D\L	8D\L	.	8.gg\L	.	.	.	.	.	.	.	.
8DD/J	8DD/J	.	.	.	.	.	.	.	.	.	.
.	.	.	16ff#X\Jk	.	.	.	.	.	.	.	.
!	!	!	!	!	!	!	!	!	!	!LO:TX:a:t=P:problem: brak pauzy	!
4GG/	4GG/	.	4gg\	4r	.	4r	.	4r	.	4ryy	.
!LO:TX:a:t=P:problem: mixed beam	!LO:TX:a:t=P:problem: mixed beam	!	!	!	!	!	!	!	!	!	!
8G\L	8G\L	.	4r	8G\	Sur-	8d\	Sur-	8d\	Sur-	8b-X\	Sur-
!LO:TX:b:t=tutti	!	!	!	!	!	!	!	!	!	!	!
8GG/J	8GG/J	.	.	8GG/	-ge	8B-X\	-ge	8d\	-ge	8b-\	-ge
!	!	!LO:TX:a:t=P:problem: brak kreski taktowej	!	!	!	!	!	!	!	!	!
=9	=9	=9	=9	=9	=9	=9	=9	=9	=9	=9	=9
!	!	!	!LO:TX:a:t=P:problem: mixed beam	!	!	!	!	!	!	!	!
8GG/L	8GG/L	2r	16gg\LL	0r	.	0r	.	0r	.	0r	.
.	.	.	16b-/	.	.	.	.	.	.	.	.
8AA/	8AA/	.	16gg\	.	.	.	.	.	.	.	.
.	.	.	16b-/JJ	.	.	.	.	.	.	.	.
!LO:TX:a:t=6	!	!	!	!	!	!	!	!	!	!	!
!LO:TX:b:t=Solo	!	!	!LO:TX:a:t=P:problem: mixed beam	!	!	!	!	!	!	!	!
8BB-/	8BB-/	.	16gg\LL	.	.	.	.	.	.	.	.
.	.	.	16b-/	.	.	.	.	.	.	.	.
8GG/J	8GG/J	.	16gg\	.	.	.	.	.	.	.	.
.	.	.	16b-/JJ	.	.	.	.	.	.	.	.
!LO:TX:a:t=♯	!LO:LB:g=original	!	!LO:TX:a:t=P:problem: mixed beam	!	!	!	!	!	!	!	!
8D\L	8D\L	4r	8ff#X\L	.	.	.	.	.	.	.	.
8E\	8E\	.	8a/J	.	.	.	.	.	.	.	.
!LO:TX:a:t=6	!	!	!	!	!	!	!	!	!	!	!
8F#X\	8F#X\	16aa\LL	4r	.	.	.	.	.	.	.	.
.	.	16ddd\	.	.	.	.	.	.	.	.	.
!LO:TX:a:t=♯	!	!	!	!	!	!	!	!	!	!	!
8D\J	8D\J	16aa\	.	.	.	.	.	.	.	.	.
.	.	16ff#X\JJ	.	.	.	.	.	.	.	.	.
=10	=10	=10	=10	=10	=10	=10	=10	=10	=10	=10	=10
!LO:TX:a:t=6	!	!	!	!	!	!	!	!	!	!	!
8F#X\	8F#X\	16ddd\LL	0r	.	.	.	.	.	.	.	.
.	.	16bb-\	.	.	.	.	.	.	.	.	.
8r	8r	16ddd\	.	.	.	.	.	.	.	.	.
.	.	16gg\JJ	.	.	.	.	.	.	.	.	.
4r	4r	16ddd\LL	.	.	.	.	.	.	.	.	.
.	.	16gg\	.	.	.	.	.	.	.	.	.
.	.	16ddd\	.	.	.	.	.	.	.	.	.
.	.	16ff#X\JJ	.	.	.	.	.	.	.	.	.
8GG/L	8GG/L	16bb-\LL	.	.	.	.	.	.	.	.	.
.	.	16dd\	.	.	.	.	.	.	.	.	.
8AA/	8AA/	16bb-\	.	.	.	.	.	.	.	.	.
.	.	16dd\JJ	.	.	.	.	.	.	.	.	.
!LO:TX:a:t=6	!	!	!	!	!	!	!	!	!	!	!
8BB-/	8BB-/	16bb-\LL	.	.	.	.	.	.	.	.	.
.	.	16dd\	.	.	.	.	.	.	.	.	.
8GG/J	8GG/J	16bb-\	.	.	.	.	.	.	.	.	.
.	.	16dd\JJ	.	.	.	.	.	.	.	.	.
=11	=11	=11	=11	=11	=11	=11	=11	=11	=11	=11	=11
!LO:TX:a:t=P:problem: mixed beam	!LO:TX:a:t=P:problem: mixed beam	!	!	!	!	!	!	!	!	!	!
8F\L	8F\L	16aa\LL	.	1r	.	1r	.	1r	.	1r	.
.	.	16cc\	.	.	.	.	.	.	.	.	.
8FF/J	8FF/J	16aa\	.	.	.	.	.	.	.	.	.
.	.	16cc\JJ	.	.	.	.	.	.	.	.	.
!	!	!LO:LB:g=original	!	!	!	!	!	!	!	!	!
4r	4r	16aa\LL	.	.	.	.	.	.	.	.	.
.	.	16cc\	.	.	.	.	.	.	.	.	.
.	.	16aa\	.	.	.	.	.	.	.	.	.
.	.	16cc\JJ	.	.	.	.	.	.	.	.	.
!LO:TX:a:t=P:problem: mixed beam	!LO:TX:a:t=P:problem: mixed beam	!	!	!	!	!	!	!	!	!	!
8G\L	8G\L	16gg\LL	.	.	.	.	.	.	.	.	.
.	.	16b-\	.	.	.	.	.	.	.	.	.
8GG/J	8GG/J	16gg\	.	.	.	.	.	.	.	.	.
.	.	16b-\JJ	.	.	.	.	.	.	.	.	.
4r	4r	16gg\LL	.	.	.	.	.	.	.	.	.
.	.	16b-\	.	.	.	.	.	.	.	.	.
.	.	16gg\	.	.	.	.	.	.	.	.	.
.	.	16b-\JJ	.	.	.	.	.	.	.	.	.
!	!	!	!	!LO:LB:g=original	!	!	!	!	!	!	!
=12	=12	=12	=12	=12	=12	=12	=12	=12	=12	=12	=12
*	*	*^	*	*	*	*	*	*	*	*	*
!LO:TX:b:t=Tutti	!	!	!	!	!	!	!	!	!	!	!	!
8r	8r	16gg\LL	8ryy	4r	4r	.	4r	.	4r	.	4r	.
.	.	16b-\	.	.	.	.	.	.	.	.	.	.
!LO:TX:a:t=4♯	!	!	!	!	!	!	!	!	!	!	!	!
8D\	8D\	16ff#X\	8ryy	.	.	.	.	.	.	.	.	.
.	.	16a\JJ	.	.	.	.	.	.	.	.	.	.
8GG/L	8GG/L	4gg/	4b-\	8dd\L	8G\	pro-	8d\	pro-	8d\	pro-	8b-X\	pro-
!	!	!	!	!	!LO:TX:a:t=P:problem:16\ right	!	!LO:TX:a:t=P:problem:16\ right	!	!LO:TX:a:t=P:problem:16\ right	!	!LO:TX:a:t=P:problem:16\ right	!
8AA/J	8AA/	.	.	16dd\L	16G\	-pe-	16d\	-pe-	16d\	-pe-	16b-\	-pe-
!	!	!	!	!	!	!	!LO:TX:a:t=P:problem: znak bemolu nad nutą	!	!	!	!	!
.	.	.	.	16dd\JJ	16GG/	-ra	16B-X\	-ra	16d\	-ra	16b-\	-ra
!LO:TX:a:t=6	!	!	!	!	!	!	!LO:LB:g=original	!	!	!	!	!
8BB-/L	8BB-/	2r	2ryy	16gg\LL	2r	.	2r	.	2r	.	2r	.
.	.	.	.	16bb-\	.	.	.	.	.	.	.	.
!LO:TX:b:t=Solo	!	!	!	!	!	!	!	!	!	!	!	!
8GG/J	8GG/J	.	.	16ddd\	.	.	.	.	.	.	.	.
.	.	.	.	16bb-\JJ	.	.	.	.	.	.	.	.
!LO:TX:a:t=6	!	!	!	!	!	!	!	!	!	!	!	!
8BB-/	8BB-/	.	.	16gg\LL	.	.	.	.	.	.	.	.
.	.	.	.	16dd\	.	.	.	.	.	.	.	.
8r	8r	.	.	16gg\	.	.	.	.	.	.	.	.
.	.	.	.	16b-\JJ	.	.	.	.	.	.	.	.
*	*	*v	*v	*	*	*	*	*	*	*	*	*
!LO:LB:g=original	!	!	!	!	!	!	!	!	!	!	!
=13	=13	=13	=13	=13	=13	=13	=13	=13	=13	=13	=13
!LO:TX:a:t=♯	!	!	!	!	!	!	!	!	!	!	!
8D\L	8D\L	1r	16ff#X\LL	1r	.	1r	.	1r	.	1r	.
.	.	.	16aa\	.	.	.	.	.	.	.	.
8E\	8E\	.	16ddd\	.	.	.	.	.	.	.	.
.	.	.	16aa\JJ	.	.	.	.	.	.	.	.
!LO:TX:a:t=6	!LO:TX:a:t=SIC:s=8F#	!	!LO:LB:g=original	!	!	!	!	!	!	!	!
8F#X\	8F\	.	16ddd\LL	.	.	.	.	.	.	.	.
.	.	.	16gg\	.	.	.	.	.	.	.	.
8D\J	8D\J	.	16ccc\	.	.	.	.	.	.	.	.
.	.	.	16ff#X\JJ	.	.	.	.	.	.	.	.
8GG/L	8GG/L	.	16gg\LL	.	.	.	.	.	.	.	.
.	.	.	16dd\	.	.	.	.	.	.	.	.
!LO:TX:a:t=6	!	!	!	!	!	!	!	!	!	!	!
8BB-/	8BB-/	.	16cc\	.	.	.	.	.	.	.	.
.	.	.	16dd\JJ	.	.	.	.	.	.	.	.
!LO:TX:a:t=6\n5	!	!	!	!	!	!	!	!	!	!	!
8C/	8C/	.	16ff#X\LL	.	.	.	.	.	.	.	.
.	.	.	16aa\	.	.	.	.	.	.	.	.
!LO:TX:a:t=♯	!	!	!	!	!	!	!	!	!	!	!
8D/J	8D/J	.	16gg\	.	.	.	.	.	.	.	.
!	!	!	!LO:TX:a:t=♯	!	!	!	!	!	!	!	!
.	.	.	16ff#\JJ	.	.	.	.	.	.	.	.
!	!LO:LB:g=original	!	!	!	!	!	!	!	!	!	!
=14	=14	=14	=14	=14	=14	=14	=14	=14	=14	=14	=14
!	!	!	!LO:TX:a:t=P:problem: mixed beam	!	!	!	!	!	!	!	!
4G\	4G\	4r	8gg\L	4r	.	4r	.	4r	.	4r	.
.	.	.	8g/J	.	.	.	.	.	.	.	.
8GG/L	8GG/L	16g/LL	4r	8GG/	a-	8B-X\	A-	8d\	a-	8b-X\	A-
.	.	16a/	.	.	.	.	.	.	.	.	.
!LO:TX:a:t=6	!	!	!	!	!	!	!	!	!	!	!
16BB-/L	16BB-/L	16b-/	.	16AA/	-mi-	16B-\	-mi-	16d\	-mi-	16b-\	-mi-
!LO:TX:a:t=6\n5	!	!	!	!	!	!	!	!	!	!	!
16C/JJ	16C/JJ	16cc/JJ	.	16C/	-ca	16d\	-ca	16d\	-ca	16b-\	-ca
!LO:TX:a:t=♯	!	!	!	!	!	!	!	!	!	!	!
8D\L	8D\L	16dd\LL	2r	8D/	me-	8d\	me-	8f#X\	me-	8a\	me-
.	.	16cc\	.	.	.	.	.	.	.	.	.
8D\J	8D\J	16b-\	.	8D/	-a	8A\	-a	8f#\	-a	8a\	-a
.	.	16a\JJ	.	.	.	.	.	.	.	.	.
8BB-/	8BB-/	16b-\LL	.	4r	.	4r	.	4r	.	4r	.
.	.	16cc\	.	.	.	.	.	.	.	.	.
8r	8r	16dd\	.	.	.	.	.	.	.	.	.
.	.	16ee-X\JJ	.	.	.	.	.	.	.	.	.
!	!	!	!	!	!	!	!	!	!	!LO:LB:g=original	!
=15	=15	=15	=15	=15	=15	=15	=15	=15	=15	=15	=15
!LO:TX:a:t=6	!	!	!	!	!	!	!	!	!	!	!
8AA/	8AA/	16ff\LL	8gg\L	0r	.	0r	.	0r	.	0r	.
.	.	16ee-X\	.	.	.	.	.	.	.	.	.
8r	8r	16dd\	8gg\	.	.	.	.	.	.	.	.
.	.	16cc\JJ	.	.	.	.	.	.	.	.	.
!LO:TX:a:t=♯	!	!	!LO:TX:a:t=♯	!	!	!	!	!	!	!	!
8D\	8D\	16dd\LL	8ff#y\	.	.	.	.	.	.	.	.
.	.	16aa\	.	.	.	.	.	.	.	.	.
8r	8r	16bb-\	8ff#\J	.	.	.	.	.	.	.	.
.	.	16ccc\JJ	.	.	.	.	.	.	.	.	.
!LO:TX:a:t=6	!	!	!	!	!	!	!	!	!	!	!
8F#X\	8F#X\	16ddd\LL	16bb-\LL	.	.	.	.	.	.	.	.
.	.	16ccc\	16dd\	.	.	.	.	.	.	.	.
8r	8r	16bb-\	16bb-\	.	.	.	.	.	.	.	.
.	.	16aa\JJ	16dd\JJ	.	.	.	.	.	.	.	.
8G\	8G\	16bb-\LL	16bb-\LL	.	.	.	.	.	.	.	.
.	.	16dd\	16dd\	.	.	.	.	.	.	.	.
8r	8r	16bb-\	16bb-\	.	.	.	.	.	.	.	.
.	.	16dd\JJ	16dd\JJ	.	.	.	.	.	.	.	.
!	!	!LO:LB:g=original	!	!	!	!	!	!	!	!	!
=16	=16	=16	=16	=16	=16	=16	=16	=16	=16	=16	=16
*	*	*^	*^	*	*	*	*	*	*	*	*
!LO:TX:a:t=3	!	!	!	!	!	!	!	!	!	!	!	!	!
8F\	8F\	16aa\LL	8ryy	16aa\LL	8ryy	.	.	.	.	.	.	.	.
.	.	16cc\	.	16cc\	.	.	.	.	.	.	.	.	.
8r	8r	16aa\	8ryy	16aa\	8ryy	.	.	.	.	.	.	.	.
.	.	16cc\JJ	.	16cc\JJ	.	.	.	.	.	.	.	.	.
!LO:TX:a:t=3	!	!	!	!LO:TX:a:t=P:problem: mixed beam	!	!	!	!	!	!	!	!	!
8E-X\	8E-X\	16gg\LL	8ryy	16gg\LL	8ryy	.	.	.	.	.	.	.	.
.	.	16b-\	.	16b-/	.	.	.	.	.	.	.	.	.
8r	8r	16gg\	8ryy	16gg\	8ryy	.	.	.	.	.	.	.	.
.	.	16b-\JJ	.	16b-/JJ	.	.	.	.	.	.	.	.	.
8r	8r	16gg\LL	8ryy	8ff#X/L	8a\L	.	.	.	.	.	.	.	.
.	.	16a\	.	.	.	.	.	.	.	.	.	.	.
!LO:TX:a:t=♯	!	!	!	!	!	!	!	!	!	!	!	!	!
!LO:TX:a:t=P:problem: mixed beam	!LO:TX:a:t=P:problem: mixed beam	!	!	!	!	!	!	!	!	!	!	!	!
8D\L	8D\L	16ff#X\	8ryy	8ff#/J	8a\J	.	.	.	.	.	.	.	.
.	.	16a\JJ	.	.	.	.	.	.	.	.	.	.	.
8G\	8G\	4gg/	4b-\	16aa\LL	8ryy	.	.	.	.	.	.	.	.
.	.	.	.	16gg\	.	.	.	.	.	.	.	.	.
8GG/J	8GG/J	.	.	16aa\	8ryy	.	.	.	.	.	.	.	.
.	.	.	.	16gg\JJ	.	.	.	.	.	.	.	.	.
*	*	*v	*v	*	*	*	*	*	*	*	*	*	*
*	*	*	*v	*v	*	*	*	*	*	*	*	*
=17	=17	=17	=17	=17	=17	=17	=17	=17	=17	=17	=17
!LO:TX:b:t=Tutti	!	!	!LO:TX:a:t=P:problem: brak tt. 17-18	!	!	!	!	!	!	!	!
8GG/L	8GG/L	8b-/L	1ryy	8G\	Co-	8d\	Co-	8d\	Co-	8b-X\	Co-
16BB-/L	16BB-/L	8b-/	.	16BB-X/	-lum-	16B-X\	-lum-	16d\	-lum-	16b-\	-lum-
16C/JJ	16C/JJ	.	.	16C/	-ba	16B-\	-ba	16e\	-ba	16b-\	-ba
!LO:TX:a:t=♯	!	!	!	!	!	!	!	!	!	!	!
8D\L	8D/L	8a/	.	8D/	me-	8d\	me-	8f#X\	me-	8a\	me-
8D\J	8D/J	8a/J	.	8D/	-a	8A\	-a	8f#\	-a	8a\	-a
8G\L	8G\L	2r	.	2r	.	2r	.	2r	.	2r	.
8A\	8A\	.	.	.	.	.	.	.	.	.	.
!LO:TX:a:t=6	!	!	!	!	!	!	!	!	!	!	!
8B-\	8B-\	.	.	.	.	.	.	.	.	.	.
!LO:TX:b:t=Solo	!	!	!	!	!	!	!	!	!	!	!
8G\J	8G\J	.	.	.	.	.	.	.	.	.	.
!LO:PB:g=original	!LO:LB:g=original	!	!	!	!	!	!	!LO:LB:g=original	!	!	!
=18	=18	=18	=18	=18	=18	=18	=18	=18	=18	=18	=18
!LO:TX:a:t=3	!	!	!	!	!	!	!	!	!	!	!
8F\L	8F\L	2r	1ryy	2r	.	2r	.	2r	.	2r	.
!LO:TX:a:t=3	!	!	!	!	!	!	!	!	!	!	!
8D\J	8D\J	.	.	.	.	.	.	.	.	.	.
!LO:TX:a:t=3	!	!	!	!	!	!	!	!	!	!	!
8E\L	8E\L	.	.	.	.	.	.	.	.	.	.
!LO:TX:a:t=6\n3	!	!	!	!	!	!	!	!	!	!	!
8C\J	8C\J	.	.	.	.	.	.	.	.	.	.
!LO:TX:a:t=♯	!	!	!	!	!	!	!	!	!	!	!
8D\L	8D\L	4r	.	4r	.	4r	.	4r	.	4r	.
8E\	8E\	.	.	.	.	.	.	.	.	.	.
!LO:TX:a:t=6	!	!	!	!	!	!	!	!	!	!	!
8F#X\	8F#X\	16ff#X\LL	.	8r	.	8r	.	8r	.	8r	.
.	.	16ee\	.	.	.	.	.	.	.	.	.
!LO:TX:a:t=♯	!	!	!	!	!	!	!	!	!	!	!
8D\J	8D\J	16ff#\	.	8D/	et	8A/	et	8f#X\	et	8a\	et
.	.	16dd\JJ	.	.	.	.	.	.	.	.	.
!	!	!	!	!LO:LB:g=original	!	!	!	!	!	!	!
=19	=19	=19	=19	=19	=19	=19	=19	=19	=19	=19	=19
8G\L	8G\L	16gg\LL	16bb-\LL	8G\	ve-	8d\	ve-	8g\	Ve-	8b-X\	ve-
.	.	16ffn\	16aa\	.	.	.	.	.	.	.	.
!LO:TX:a:t=♯	!	!	!	!	!	!	!	!	!	!	!
8E\J	8D\J	16ee\	16gg\	8D\	-ni	8d\	-ni	8f#X\	-ni	8a\	-ni
.	.	16ff\JJ	16aa\JJ	.	.	.	.	.	.	.	.
4G\	4G\	16gg\LL	16bb-\LL	4r	.	4r	.	4r	.	4r	.
.	.	16ff\	16aa\	.	.	.	.	.	.	.	.
.	.	16ee\	16gg\	.	.	.	.	.	.	.	.
!	!	!	!LO:TX:a:t=SIC:custos gg	!	!	!	!	!	!	!	!
.	.	16dd\JJ	16ff\JJ	.	.	.	.	.	.	.	.
!LO:TX:b:t=Solo	!	!	!LO:LB:g=original	!	!	!	!	!	!	!	!
!LO:TX:a:t=65	!	!	!	!	!	!	!	!	!	!	!
2GG/	2GG/	16ee\LL	16gg\LL	2r	.	2r	.	2r	.	2r	.
.	.	16dd\	16ff\	.	.	.	.	.	.	.	.
.	.	16cc#X\	16ee\	.	.	.	.	.	.	.	.
.	.	16dd\JJ	16ff\JJ	.	.	.	.	.	.	.	.
.	.	16ee\LL	16gg\LL	.	.	.	.	.	.	.	.
.	.	16dd\	16ff\	.	.	.	.	.	.	.	.
.	.	16cc#X\	16ee\	.	.	.	.	.	.	.	.
.	.	16a\JJ	16dd\JJ	.	.	.	.	.	.	.	.
=20	=20	=20	=20	=20	=20	=20	=20	=20	=20	=20	=20
4AA#/	4AA/	16cc#X\LL	16ee\LL	0r	.	0r	.	0r	.	0r	.
.	.	16dd\	16ff\	.	.	.	.	.	.	.	.
.	.	16cc#\	16ee\	.	.	.	.	.	.	.	.
.	.	16dd\JJ	16ff\JJ	.	.	.	.	.	.	.	.
!LO:TX:a:t=6\n5	!	!LO:LB:g=original	!	!	!	!	!	!	!	!	!
4GG/	4GG/	16ee\LL	16gg\LL	.	.	.	.	.	.	.	.
.	.	16ff\	16aa\	.	.	.	.	.	.	.	.
.	.	16ee\	16gg\	.	.	.	.	.	.	.	.
.	.	16dd\JJ	16ff\JJ	.	.	.	.	.	.	.	.
!LO:TX:a:t=6\n43	!	!	!	!	!	!	!	!	!	!	!
4AA#X/	4AA/	8cc#X\L	8ee\L	.	.	.	.	.	.	.	.
.	.	16dd\L	16ff\L	.	.	.	.	.	.	.	.
.	.	16cc#\JJ	16ee\JJ	.	.	.	.	.	.	.	.
4D\	4D\	4a/	4dd\	.	.	.	.	.	.	.	.
=21	=21	=21	=21	=21	=21	=21	=21	=21	=21	=21	=21
4D\	4D\	16dd\LL	4r	.	.	.	.	.	.	.	.
.	.	16ff\	.	.	.	.	.	.	.	.	.
.	.	16aa\	.	.	.	.	.	.	.	.	.
.	.	16ff\JJ	.	.	.	.	.	.	.	.	.
8D\L	8D\L	4r	16ddd\LL	.	.	.	.	.	.	.	.
.	.	.	16ff\	.	.	.	.	.	.	.	.
8E\J	8E\J	.	16ddd\	.	.	.	.	.	.	.	.
.	.	.	16ff\JJ	.	.	.	.	.	.	.	.
!LO:TX:a:t=6	!	!	!	!	!	!	!	!	!	!	!
8F\L	8F\L	2r	16ddd\LL	.	.	.	.	.	.	.	.
.	.	.	16ff\	.	.	.	.	.	.	.	.
8D\J	8D\J	.	16ddd\	.	.	.	.	.	.	.	.
.	.	.	16ff\JJ	.	.	.	.	.	.	.	.
!LO:TX:a:t=♯	!	!	!	!	!	!	!	!	!	!	!
8AA/L	8AA/L	.	16ccc#X\LL	.	.	.	.	.	.	.	.
.	.	.	16ee\	.	.	.	.	.	.	.	.
!	!	!	!LO:TX:a:t=♯	!	!	!	!	!	!	!	!
8BBn/J	8BBn/J	.	16ccc#\	.	.	.	.	.	.	.	.
.	.	.	16ee\JJ	.	.	.	.	.	.	.	.
!	!	!	!	!	!	!LO:LB:g=original	!	!	!	!	!
=22	=22	=22	=22	=22	=22	=22	=22	=22	=22	=22	=22
!LO:TX:a:t=6	!	!	!LO:TX:a:t=♯	!	!	!	!	!	!	!	!
8C#X/L	8C#X/L	2r	16ccc#X\LL	2r	.	2r	.	2r	.	2r	.
.	.	.	16ee\	.	.	.	.	.	.	.	.
!	!	!	!LO:TX:a:t=♯	!	!	!	!	!	!	!	!
8AA/J	8AA/J	.	16ccc#\	.	.	.	.	.	.	.	.
.	.	.	16ee\JJ	.	.	.	.	.	.	.	.
8D\L	8D\L	.	16ff\LL	.	.	.	.	.	.	.	.
.	.	.	16a\	.	.	.	.	.	.	.	.
8E\J	8E\J	.	16ff\	.	.	.	.	.	.	.	.
.	.	.	16a\JJ	.	.	.	.	.	.	.	.
!LO:TX:a:t=6	!	!	!	!	!	!	!	!	!	!	!
8F\L	8F\L	4r	16ff\LL	4r	.	4r	.	4r	.	4r	.
.	.	.	16a\	.	.	.	.	.	.	.	.
8D\J	8D\J	.	16ff\	.	.	.	.	.	.	.	.
.	.	.	16a\JJ	.	.	.	.	.	.	.	.
!LO:TX:a:t=P:problem: mixed beam	!LO:TX:a:t=P:problem: mixed beam	!	!	!	!	!	!	!	!	!	!
8A\L	8A\L	8cc#X\L	8ee\L	8r	.	8r	.	8r	.	8r	.
!LO:TX:a:t=♯	!	!	!	!	!	!	!	!	!	!	!
8AA/J	8AA/J	8cc#\J	8ee\J	8A\	et	8c#X\	et	8a\	et	8ee\	et
=23	=23	=23	=23	=23	=23	=23	=23	=23	=23	=23	=23
!LO:TX:b:t=Tutti	!	!	!	!	!	!	!	!	!	!	!
8D\L	8D\L	8dd\L	8ff\L	8D/	V-	8d\	Ve-	8a\	Ve-	8ff\	ve-
!LO:TX:a:t=♯	!	!	!	!	!	!	!	!	!	!	!
8A\J	8A\J	8cc#X\J	8ee\J	8AA/	-ni	8c#X\	-ni	8a\	-ni	8ee\	-ni
8D\L	8D\L	16ff\LL	16aa\LL	4r	.	4r	.	4r	.	4r	.
.	.	16a\	16ddd\	.	.	.	.	.	.	.	.
8E\J	8E\J	16ff\	16aa\	.	.	.	.	.	.	.	.
.	.	16a\JJ	16ff\JJ	.	.	.	.	.	.	.	.
!LO:TX:b:t=Solo	!	!	!LO:LB:g=original	!	!	!	!	!	!	!	!
!LO:TX:a:t=6	!	!	!	!	!	!	!	!	!	!	!
8F\L	8F\L	16ff\LL	2r	2r	.	2r	.	2r	.	2r	.
.	.	16a\	.	.	.	.	.	.	.	.	.
8D\J	8D\J	16ff\	.	.	.	.	.	.	.	.	.
.	.	16a\JJ	.	.	.	.	.	.	.	.	.
!LO:TX:a:t=4	!	!	!	!	!	!	!	!	!	!	!
8C/L	8C\L	16ee\LL	.	.	.	.	.	.	.	.	.
.	.	16g\	.	.	.	.	.	.	.	.	.
8D/J	8D\J	16ee\	.	.	.	.	.	.	.	.	.
.	.	16g\JJ	.	.	.	.	.	.	.	.	.
!LO:LB:g=original	!	!	!	!	!	!	!	!	!	!	!
=24	=24	=24	=24	=24	=24	=24	=24	=24	=24	=24	=24
!LO:TX:a:t=3	!	!	!	!	!	!	!	!	!	!	!
8E\L	8E\L	16ee\LL	1r	1r	.	1r	.	1r	.	1r	.
.	.	16g\	.	.	.	.	.	.	.	.	.
8C#X\	8C#X\J	16ee\	.	.	.	.	.	.	.	.	.
.	.	16g\JJ	.	.	.	.	.	.	.	.	.
8F\	8F\L	16dd\LL	.	.	.	.	.	.	.	.	.
.	.	16f\	.	.	.	.	.	.	.	.	.
!LO:TX:a:t=6	!	!	!	!	!	!	!	!	!	!	!
8E\J	8E\J	16dd\	.	.	.	.	.	.	.	.	.
.	.	16f\JJ	.	.	.	.	.	.	.	.	.
!LO:TX:a:t=5	!	!	!	!	!	!	!	!	!	!	!
8BB-/L	8BB-/L	16dd\LL	.	.	.	.	.	.	.	.	.
.	.	16f\	.	.	.	.	.	.	.	.	.
!LO:TX:a:t=6\n5	!	!	!	!	!	!	!	!	!	!	!
8GG/J	8GG/J	16dd\	.	.	.	.	.	.	.	.	.
.	.	16f\JJ	.	.	.	.	.	.	.	.	.
!LO:TX:a:t=43	!	!LO:TX:a:t=P:problem: mixed beam	!	!	!	!	!	!	!	!	!
4AA/	4AA/	8cc#X\L	.	.	.	.	.	.	.	.	.
.	.	8e/J	.	.	.	.	.	.	.	.	.
!	!	!LO:LB:g=original	!	!	!	!	!	!	!	!LO:PB:g=original	!
=25	=25	=25	=25	=25	=25	=25	=25	=25	=25	=25	=25
!LO:TX:a:t=♯	!	!	!	!	!	!	!	!	!	!	!
8A\L	8A\L	8cc#X\L	8ee\L	8A\	Iam	8c#X\	Iam	8a\	Iam	8ee\	Iam
!	!	!	!	!	!	!	!	!	!	!LO:TX:a:t=P:problem: dorysowoana linia nad pięciolinią przez 3 kolejne nuty	!
8D\J	8D\	16dd\L	16ff\L	16D/	e-	16d\	e-	16a\	e-	16ff\	e-
.	.	16ee\JJ	16gg\JJ	16D/	-nim	16e\	-nim	16a\	-nim	16gg\	-nim
!LO:TX:a:t=P:problem: mixed beam	!	!	!	!	!	!	!	!	!	!	!
8D\L	8D\	8dd\L	8.ff\L	8D/	hi-	8d\	hi-	8a\	hi-	8ff\	hi-
!LO:TX:a:t=♯	!	!	!	!	!	!	!	!	!	!	!
8AA/J	8AA\J	8cc#X\J	.	8AA/	-ems	8c#X\	-ems	8a\	-ems	8ee\	-ems
.	.	.	16ee\Jk	.	.	.	.	.	.	.	.
2r	2r	8ee\L	8gg\L	2r	.	2r	.	2r	.	2r	.
.	.	16ff\L	16aa\L	.	.	.	.	.	.	.	.
.	.	16gg\JJ	16bb-\JJ	.	.	.	.	.	.	.	.
.	.	8ff\L	8aa\L	.	.	.	.	.	.	.	.
.	.	8ee\J	8gg\J	.	.	.	.	.	.	.	.
=26	=26	=26	=26	=26	=26	=26	=26	=26	=26	=26	=26
!LO:TX:a:t=P:problem: mixed beam	!LO:TX:a:t=P:problem: mixed beam	!	!	!	!	!	!	!	!	!	!
8D\L	8D\L	16dd\LL	16ff\LL	1r	.	1r	.	1r	.	1r	.
.	.	16ff\	16aa\	.	.	.	.	.	.	.	.
!LO:TX:a:t=6\n5	!	!	!	!	!	!	!	!	!	!	!
8G\	8G\	16ee\	16gg\	.	.	.	.	.	.	.	.
.	.	16dd\JJ	16ff\JJ	.	.	.	.	.	.	.	.
8A\	8A\	8cc#X\L	8.ee\L	.	.	.	.	.	.	.	.
!LO:TX:b:t=Solo	!	!	!	!	!	!	!	!	!	!	!
!LO:TX:a:t=4*	!	!	!	!	!	!	!	!	!	!	!
8AA/J	8AA/J	8dd\J	.	.	.	.	.	.	.	.	.
.	.	.	16dd\Jk	.	.	.	.	.	.	.	.
8D\L	8D\L	16a\LL	16dd\LL	.	.	.	.	.	.	.	.
.	.	16dd\	16ff\	.	.	.	.	.	.	.	.
8E\	8E\	16ff\	16aa\	.	.	.	.	.	.	.	.
.	.	16dd\JJ	16ff\JJ	.	.	.	.	.	.	.	.
!LO:TX:a:t=6	!	!	!	!	!	!	!	!	!	!	!
8F\	8F\	16ff\LL	16aa\LL	.	.	.	.	.	.	.	.
.	.	16dd\	16ff\	.	.	.	.	.	.	.	.
8D\J	8D\J	16ff\	16aa\	.	.	.	.	.	.	.	.
.	.	16a\JJ	16dd\JJ	.	.	.	.	.	.	.	.
=27	=27	=27	=27	=27	=27	=27	=27	=27	=27	=27	=27
!LO:TX:b:t=tut	!	!	!	!	!	!	!	!	!	!	!
8A\L	8A\L	8cc#X\L	8ee\L	8AA/	Tran-	8c#X\	Tran-	8a\	Tran-	8ee\	tran-
!LO:TX:a:t=♯	!	!	!	!	!	!	!	!	!	!	!
8A\J	8A\J	16dd\L	16ff\L	16D/	-siit	8.d\	-siit	16a\	-siit	16ff\	-siit
.	.	16cc#\JJ	16ee\JJ	16AA/	.	.	.	16a\	.	16ee\	.
4D^\	4D\	8ff\L	16ddd\LL	4r	.	.	.	4r	.	4r	.
!	!	!	!LO:TX:a:t=P:problem: dorysowana kreska nad pięciolinią do końca taktu	!	!	!	!	!	!	!	!
.	.	.	16aa\	.	.	16c#X\	.	.	.	.	.
.	.	8ff\J	16bb-\	.	.	8r	.	.	.	.	.
.	.	.	16ccc\JJ	.	.	.	.	.	.	.	.
!	!	!	!	!	!	!	!	!LO:LB:g=original	!	!	!
4G^\	4G\	16gg\LL	8bb-\L	2r	.	2r	.	2r	.	2r	.
.	.	16dd\	.	.	.	.	.	.	.	.	.
.	.	16ee\	8bb-\J	.	.	.	.	.	.	.	.
.	.	16ff\JJ	.	.	.	.	.	.	.	.	.
4C^/	4C/	8ee\L	16ccc\LL	.	.	.	.	.	.	.	.
.	.	.	16gg\	.	.	.	.	.	.	.	.
.	.	8ee\J	16aa\	.	.	.	.	.	.	.	.
.	.	.	16bb-\JJ	.	.	.	.	.	.	.	.
!	!LO:LB:g=original	!	!	!LO:LB:g=original	!	!	!	!	!	!	!
=28	=28	=28	=28	=28	=28	=28	=28	=28	=28	=28	=28
4F^\	4F\	16ff\LL	8aa\L	1r	.	1r	.	1r	.	1r	.
.	.	16cc\	.	.	.	.	.	.	.	.	.
.	.	16dd\	8aa\J	.	.	.	.	.	.	.	.
.	.	16ee\JJ	.	.	.	.	.	.	.	.	.
4BB-^/	4BB-/	8dd\L	16bb-\LL	.	.	.	.	.	.	.	.
.	.	.	16ff\	.	.	.	.	.	.	.	.
.	.	8dd\J	16gg\	.	.	.	.	.	.	.	.
.	.	.	16aa\JJ	.	.	.	.	.	.	.	.
4E^\	4E\	16ee\LL	8gg\L	.	.	.	.	.	.	.	.
.	.	16bn\	.	.	.	.	.	.	.	.	.
.	.	16cc#X\	8gg\J	.	.	.	.	.	.	.	.
.	.	16dd\JJ	.	.	.	.	.	.	.	.	.
8AA#/L	8AA/L	4cc#X\	8.ee\L	.	.	.	.	.	.	.	.
8AA#y/J	8AA/J	.	.	.	.	.	.	.	.	.	.
.	.	.	16ee\Jk	.	.	.	.	.	.	.	.
!	!	!LO:LB:g=original	!LO:LB:g=original	!	!	!	!	!	!	!	!
=29	=29	=29	=29	=29	=29	=29	=29	=29	=29	=29	=29
!LO:TX:b:t=tut	!	!	!	!	!	!	!	!	!	!	!
!LO:TX:a:t=P:problem: mixed beam	!	!	!	!	!	!	!	!	!	!	!
8D\L	8D\L	8dd\L	8ff\L	8D\	Im-	8d\	Im-	8a\	Im-	8ff\	Im-
8D\	8D\J	8dd\J	8ff\J	8D\	-ber	8d\	-ber	8a\	-ber	8ff\	-ber
!	!LO:TX:a:t=P:problem: mixed beam	!	!	!	!	!	!	!	!	!	!
8A\	8A\L	8cc#X\L	8ee\L	8A\	re-	8c#X\	re-	8a\	re-	8ee\	re-
!	!	!	!	!	!	!LO:LB:g=original	!	!	!	!	!
8AA/J	8AA/J	16cc#\L	16ee\L	16AA/	-ce-	16c#\	-ce-	16a\	-ce-	16ee\	-ce-
.	.	16cc#\JJ	16ee\JJ	16AA/	-ſsit	16c#\	-ſsit	16a\	-ſsit	16ee\	-ſsit
4D\	4D\	16dd\LL	4r	2r	.	2r	.	2r	.	2r	.
.	.	16ff\	.	.	.	.	.	.	.	.	.
.	.	16aa\	.	.	.	.	.	.	.	.	.
.	.	16ff\JJ	.	.	.	.	.	.	.	.	.
!LO:TX:b:t=Solo	!	!	!	!	!	!	!	!	!	!	!
8D\L	8D\L	4r	16ddd\LL	.	.	.	.	.	.	.	.
.	.	.	16ff\	.	.	.	.	.	.	.	.
8E\J	8E\J	.	16ddd\	.	.	.	.	.	.	.	.
.	.	.	16dd\JJ 16ff	.	.	.	.	.	.	.	.
!LO:LB:g=original	!	!	!	!	!	!	!	!	!	!	!
=30	=30	=30	=30	=30	=30	=30	=30	=30	=30	=30	=30
!LO:TX:a:t=6	!	!	!	!	!	!	!	!	!	!	!
8F\L	8F\L	1r	16ddd\LL	1r	.	1r	.	1r	.	1r	.
.	.	.	16ff\	.	.	.	.	.	.	.	.
8D\J	8D\J	.	16ddd\	.	.	.	.	.	.	.	.
.	.	.	16ff\JJ	.	.	.	.	.	.	.	.
!	!	!	!LO:TX:a:t=♯	!	!	!	!	!	!	!	!
8AA/L	8AA/L	.	16ccc#y\LL	.	.	.	.	.	.	.	.
.	.	.	16ee\	.	.	.	.	.	.	.	.
!	!	!	!LO:TX:a:t=♯	!	!	!	!	!	!	!	!
8BBn/J	8BBn/J	.	16ccc#\	.	.	.	.	.	.	.	.
.	.	.	16ee\JJ	.	.	.	.	.	.	.	.
!LO:TX:a:t=6	!	!	!LO:TX:a:t=♯	!	!	!	!	!	!	!	!
8C#X/L	8C#X/L	.	16ccc#\LL	.	.	.	.	.	.	.	.
.	.	.	16ee\	.	.	.	.	.	.	.	.
!	!	!	!LO:TX:a:t=♯	!	!	!	!	!	!	!	!
8AA/J	8AA/J	.	16ccc#\	.	.	.	.	.	.	.	.
.	.	.	16ee\JJ	.	.	.	.	.	.	.	.
!	!	!	!LO:TX:a:t=P:problem: mixed beam	!	!	!	!	!	!	!	!
8D\L	8D\L	.	16ff\LL	.	.	.	.	.	.	.	.
.	.	.	16a/	.	.	.	.	.	.	.	.
8E\J	8E\J	.	16ff\	.	.	.	.	.	.	.	.
.	.	.	16a/JJ	.	.	.	.	.	.	.	.
=31	=31	=31	=31	=31	=31	=31	=31	=31	=31	=31	=31
!	!	!	!LO:TX:a:t=P:problem: mixed beam	!	!	!	!	!	!	!	!
8F\L	8F\L	4r	16ff\LL	4r	.	4r	.	4r	.	4r	.
.	.	.	16a/	.	.	.	.	.	.	.	.
8G\J	8G\J	.	16ff\	.	.	.	.	.	.	.	.
.	.	.	16a/JJ	.	.	.	.	.	.	.	.
!LO:TX:a:t=P:problem: mixed beam	!LO:TX:a:t=P:problem: mixed beam	!	!	!	!	!	!	!	!	!	!
8A\L	8A\L	8cc#X\L	8ee\L	8r	.	8r	.	8r	.	8r	.
!LO:TX:a:t=♯	!	!	!	!	!	!	!	!	!	!	!
8AA/J	8AA/J	8cc#\J	8ee\J	8A\	et	8c#X\	et	8a\	et	8ee\	et
!LO:TX:b:t=tutti	!	!	!	!	!	!	!	!	!	!	!
8D/L	8D\L	8a/L	8ff\L	8.D\	abi-	8.d\	abi-	8.a\	abi-	8.ff\	abi-
8AA#/J	8AA\J	8a/J	8ee\J	.	.	.	.	.	.	.	.
.	.	.	.	16A\	-it	16c#\	-it	16a\	-it	16ee\	-it
4D/	4D\	4a/	4ff\	4D\	.	4A/	.	4a\	.	4dd\	.
!	!	!	!	!	!	!	!	!	!	!LO:TX:a:t=P:problem: mixed beam	!
=32	=32	=32	=32	=32	=32	=32	=32	=32	=32	=32	=32
!LO:TX:b:t=Solo	!	!	!	!	!	!	!	!	!	!	!
8F\L	8F\L	16aa\LL	0r	0r	.	0r	.	1r	.	0r	.
.	.	16cc\	.	.	.	.	.	.	.	.	.
8G\	8G\	16aa\	.	.	.	.	.	.	.	.	.
.	.	16cc\JJ	.	.	.	.	.	.	.	.	.
!LO:TX:a:t=6	!	!	!	!	!	!	!	!	!	!	!
8A\	8A\	16aa\LL	.	.	.	.	.	.	.	.	.
.	.	16cc\	.	.	.	.	.	.	.	.	.
8F\J	8F\J	16aa\	.	.	.	.	.	.	.	.	.
!	!	!	!LO:TX:a:t=2	!	!	!	!	!	!	!	!
.	.	16cc\JJ	.	.	.	.	.	.	.	.	.
!	!LO:LB:g=original	!	!	!	!	!	!	!	!	!	!
8C/L	8C/L	16gg\LL	.	.	.	.	.	.	.	.	.
.	.	16cc\	.	.	.	.	.	.	.	.	.
8D/	8D/	16gg\	.	.	.	.	.	.	.	.	.
.	.	16cc\JJ	.	.	.	.	.	.	.	.	.
!LO:TX:a:t=6	!	!	!	!	!	!	!	!	!	!	!
8E/	8E/	16gg\LL	.	.	.	.	.	.	.	.	.
.	.	16cc\	.	.	.	.	.	.	.	.	.
8C/J	8C/J	16gg\	.	.	.	.	.	.	.	.	.
.	.	16cc\JJ	.	.	.	.	.	.	.	.	.
=33	=33	=33	=33	=33	=33	=33	=33	=33	=33	=33	=33
8D\L	8D\L	16ff\LL	.	.	.	.	.	1r	.	.	.
.	.	16a\	.	.	.	.	.	.	.	.	.
8E\	8E\	16ff\	.	.	.	.	.	.	.	.	.
.	.	16a\JJ	.	.	.	.	.	.	.	.	.
!LO:TX:a:t=6	!	!	!	!	!	!	!	!	!	!	!
8F\	8F\	16ff\LL	.	.	.	.	.	.	.	.	.
.	.	16a\	.	.	.	.	.	.	.	.	.
8D\J	8D\J	16ff\	.	.	.	.	.	.	.	.	.
.	.	16a\JJ	.	.	.	.	.	.	.	.	.
8AA/L	8AA/L	16ee\LL	.	.	.	.	.	.	.	.	.
.	.	16a\	.	.	.	.	.	.	.	.	.
8BBn/	8BBn/	16ee\	.	.	.	.	.	.	.	.	.
.	.	16a\JJ	.	.	.	.	.	.	.	.	.
!LO:TX:a:t=6	!	!LO:LB:g=original	!	!	!	!	!	!	!	!	!
8C#X/	8C#X/	16ee\LL	.	.	.	.	.	.	.	.	.
.	.	16a\	.	.	.	.	.	.	.	.	.
8AA#/J	8AA/J	16ee\	.	.	.	.	.	.	.	.	.
.	.	16a\JJ	.	.	.	.	.	.	.	.	.
!	!	!	!LO:TX:a:t=P:problem: brak kreski taktowej	!	!	!LO:TX:a:t=P:problem: brak kreski taktowej	!	!	!	!	!
=34	=34	=34	=34	=34	=34	=34	=34	=34	=34	=34	=34
!LO:TX:a:t=6	!	!	!	!	!	!	!	!	!	!	!
8F\L	8F\L	16dd\LL	2r	2r	.	2r	.	2r	.	2r	.
.	.	16f\	.	.	.	.	.	.	.	.	.
8E\	8E\	16dd\	.	.	.	.	.	.	.	.	.
.	.	16f\JJ	.	.	.	.	.	.	.	.	.
!LO:TX:a:t=6	!	!	!	!	!	!	!	!	!	!	!
8F\	8F\	16dd\LL	.	.	.	.	.	.	.	.	.
.	.	16f\	.	.	.	.	.	.	.	.	.
8D\J	8D\J	16dd\	.	.	.	.	.	.	.	.	.
.	.	16f\JJ	.	.	.	.	.	.	.	.	.
!LO:TX:b:t=tut	!	!	!	!	!	!	!	!	!	!	!
4AA#/	4AA/	8cc#X\L	8ee\L	8A\	Sur-	8c#X\	Sur-	8a\	Sur-	8ee\	Sur-
.	.	8a\	8cc#X\J	8AA/	-ge	8c#\	-ge	8a\	-ge	8ee\	-ge
4D/	4D\	8dd\	8ff\L	8D/	pro-	8d\	pro-	8a\	pro-	8ff\	pro-
.	.	8dd\J	16ff\L	16D/	-pe-	16d\	-pe-	16a\	-pe-	16ff\	-pe-
.	.	.	16ff\JJ	16D/	-ra	16d\	-ra	16a\	-ra	16ff\	-ra
!LO:LB:g=original	!	!	!	!	!	!	!	!	!	!	!
=35	=35	=35	=35	=35	=35	=35	=35	=35	=35	=35	=35
!LO:TX:b:t=Solo	!	!	!LO:TX:a:t=P:problem: mixed beam	!	!	!	!	!	!	!	!
8D\L	8D\L	0r	16dd\LL	0r	.	0r	.	0r	.	0r	.
.	.	.	16f/	.	.	.	.	.	.	.	.
8E\	8E\	.	16dd\	.	.	.	.	.	.	.	.
.	.	.	16f/JJ	.	.	.	.	.	.	.	.
!LO:TX:a:t=6	!	!	!LO:TX:a:t=P:problem: mixed beam	!	!	!	!	!	!	!	!
8F\	8F\	.	16dd\LL	.	.	.	.	.	.	.	.
.	.	.	16f/	.	.	.	.	.	.	.	.
8D\J	8D\J	.	16dd\	.	.	.	.	.	.	.	.
.	.	.	16f/JJ	.	.	.	.	.	.	.	.
!	!	!	!LO:TX:a:t=P:problem: mixed beam	!	!	!	!	!	!	!	!
8AA/L	8AA/L	.	16cc#y\LL	.	.	.	.	.	.	.	.
.	.	.	16e/	.	.	.	.	.	.	.	.
!LO:TX:a:t=	!	!	!LO:TX:a:t=♯	!	!	!	!	!	!	!	!
8BBn/	8BBn/	.	16cc#\	.	.	.	.	.	.	.	.
.	.	.	16e/JJ	.	.	.	.	.	.	.	.
!	!	!	!LO:TX:a:t=P:problem: mixed beam	!	!	!	!	!	!	!	!
8C#X/	8C#X/	.	16cc#X\LL	.	.	.	.	.	.	.	.
.	.	.	16e/	.	.	.	.	.	.	.	.
8AA/J	8AA/J	.	16cc#X\	.	.	.	.	.	.	.	.
.	.	.	16e/JJ	.	.	.	.	.	.	.	.
=36	=36	=36	=36	=36	=36	=36	=36	=36	=36	=36	=36
8D\L	8D\L	.	16ff\LL	.	.	.	.	.	.	.	.
.	.	.	16a\	.	.	.	.	.	.	.	.
8E\	8E\	.	16ff\	.	.	.	.	.	.	.	.
.	.	.	16a\JJ	.	.	.	.	.	.	.	.
!LO:TX:a:t=6	!	!	!	!	!	!	!	!	!	!	!
8F\	8F\	.	16ff\LL	.	.	.	.	.	.	.	.
.	.	.	16a\	.	.	.	.	.	.	.	.
8D\J	8D\J	.	16ff\	.	.	.	.	.	.	.	.
.	.	.	16a\JJ	.	.	.	.	.	.	.	.
!	!	!	!LO:TX:a:t=P:problem: mixed beam	!	!	!	!	!	!	!	!
8C/L	8C\L	.	16ee\LL	.	.	.	.	.	.	.	.
.	.	.	16g/	.	.	.	.	.	.	.	.
8D/	8D\	.	16ee\	.	.	.	.	.	.	.	.
.	.	.	16g/JJ	.	.	.	.	.	.	.	.
!LO:TX:a:t=6	!	!	!LO:TX:a:t=P:problem: mixed beam	!	!	!	!	!	!	!	!
8E/	8E\	.	16ee/LL	.	.	.	.	.	.	.	.
.	.	.	16g\	.	.	.	.	.	.	.	.
8C/J	8C\J	.	16ee/	.	.	.	.	.	.	.	.
.	.	.	16g\JJ	.	.	.	.	.	.	.	.
!	!LO:LB:g=original	!	!	!	!	!	!	!	!	!	!
=37	=37	=37	=37	=37	=37	=37	=37	=37	=37	=37	=37
!	!	!	!LO:TX:a:t=P:problem: mixed beam	!	!	!	!	!	!	!	!
8FF/L	8FF/L	1r	16ff\LL	1r	.	1r	.	1r	.	1r	.
.	.	.	16a/	.	.	.	.	.	.	.	.
8GG/	8GG/	.	16ff\	.	.	.	.	.	.	.	.
.	.	.	16a/JJ	.	.	.	.	.	.	.	.
!LO:TX:a:t=6	!	!	!LO:TX:a:t=P:problem: mixed beam	!	!	!	!	!	!	!	!
8AA/	8AA/	.	16ff\LL	.	.	.	.	.	.	.	.
.	.	.	16a/	.	.	.	.	.	.	.	.
8FF/J	8FF/J	.	16ff\	.	.	.	.	.	.	.	.
.	.	.	16a/JJ	.	.	.	.	.	.	.	.
!	!	!	!LO:TX:a:t=P:problem: mixed beam	!	!	!	!	!	!	!	!
8C/L	8C/L	.	16ee\LL	.	.	.	.	.	.	.	.
.	.	.	16g/	.	.	.	.	.	.	.	.
8D/	8D/	.	16ee\	.	.	.	.	.	.	.	.
.	.	.	16g/JJ	.	.	.	.	.	.	.	.
!LO:TX:a:t=6	!	!	!LO:TX:a:t=P:problem: mixed beam	!	!	!	!	!	!	!	!
8E/	8E/	.	16ee\LL	.	.	.	.	.	.	.	.
.	.	.	16g/	.	.	.	.	.	.	.	.
!LO:TX:a:t=6	!	!	!	!	!	!	!	!	!	!	!
!LO:TX:a:t=SIC:s=8C#	!	!	!	!	!	!	!	!	!	!	!
8C/J	8C#X/J	.	16ee\	.	.	.	.	.	.	.	.
.	.	.	16g/JJ	.	.	.	.	.	.	.	.
!	!	!LO:TX:a:t=P:problem: brak kreski taktowej	!	!	!	!	!	!	!	!	!
=38	=38	=38	=38	=38	=38	=38	=38	=38	=38	=38	=38
*	*	*	*^	*	*	*	*	*	*	*	*
!	!	!	!LO:TX:a:t=P:problem: mixed beam	!	!	!	!	!	!	!	!	!
8D\L	8D\L	2r	16dd\LL	2ryy	2r	.	2r	.	2r	.	2r	.
.	.	.	16f/	.	.	.	.	.	.	.	.	.
8E\	8E\	.	16dd\	.	.	.	.	.	.	.	.	.
.	.	.	16f/JJ	.	.	.	.	.	.	.	.	.
!LO:TX:a:t=6	!	!	!LO:TX:a:t=P:problem: mixed beam	!	!	!	!	!	!	!	!	!
8F\	8F\	.	16dd\LL	.	.	.	.	.	.	.	.	.
.	.	.	16f/	.	.	.	.	.	.	.	.	.
8D\J	8D\J	.	16dd\	.	.	.	.	.	.	.	.	.
.	.	.	16f/JJ	.	.	.	.	.	.	.	.	.
!LO:TX:a:t=♯	!	!	!	!	!	!	!	!	!	!	!	!
!LO:TX:b:t=tutti	!	!	!	!	!	!	!	!	!	!	!	!
!LO:TX:a:t=P:problem: mixed beam	!LO:TX:a:t=P:problem: mixed beam	!	!LO:LB:g=original	!	!	!	!	!	!	!	!	!
8A\L	8A\L	8a/L	8cc#y/L	8e\L	8A\	Sur-	8c#X\	Sur-	8a\	Sur-	8ee\	Sur-
8AA/J	8AA/J	8a/J	8cc#/J	8e\J	8A\	-ge	8c#\	-ge	8a\	-ge	8ee\	-ge
8r	8r	16ff\LL	16aa\LL	4ryy	4r	.	4r	.	4r	.	4r	.
.	.	16ee\	16gg\	.	.	.	.	.	.	.	.	.
8D/	8D\	16ff\	16aa\	.	.	.	.	.	.	.	.	.
.	.	16dd\JJ	16ff\JJ	.	.	.	.	.	.	.	.	.
!	!	!	!	!	!	!	!	!	!LO:LB:g=original	!	!	!
*	*	*	*v	*v	*	*	*	*	*	*	*	*
=39	=39	=39	=39	=39	=39	=39	=39	=39	=39	=39	=39
!LO:TX:a:t=P:problem: mixed beam	!LO:TX:a:t=P:problem: mixed beam	!	!	!	!	!	!	!	!	!	!
8A\L	8A\L	8.cc#X\L	8.ee\L	4r	.	4r	.	4r	.	4r	.
!LO:TX:a:t=4#	!	!	!	!	!	!	!	!	!	!	!
8AA/J	8AA/J	.	.	.	.	.	.	.	.	.	.
.	.	16dd\Jk	16dd\Jk	.	.	.	.	.	.	.	.
4D/	4D\	8a/L	8dd\L	8D/	Sur-	8A/	Sur-	8f\	Sur-	8dd\	Sur-
.	.	8a/J	8dd\J	8D/	-ge.	8A/	-ge.	8f\	-ge	8dd\	-ge.
2r	2r	2r	2r	2r	.	2r	.	2r	.	2r	.
==	==	==	==;;	==	==	==	==	==	==	==	==
*-	*-	*-	*-	*-	*-	*-	*-	*-	*-	*-	*-
!!!system-decoration: [(g1)][(g2)][(g3)]
!!!ENC: Krzysztof Stępień
!!!END: 2020-04-19
!!!ENC: Anna Matuszewska
!!!END: 2020-10-25
